frontend/public/ei_location.svg

<svg width="48" height="48" viewBox="0 0 48 48" fill="none" xmlns="http://www.w3.org/2000/svg">
<path d="M23.9995 40.7998L23.2315 39.9358C22.7515 39.4558 11.5195 26.2078 11.5195 18.2398C11.5195 11.3278 17.0875 5.75977 23.9995 5.75977C30.9115 5.75977 36.4795 11.3278 36.4795 18.2398C36.4795 26.2078 25.2475 39.4558 24.7675 40.0318L23.9995 40.7998ZM23.9995 7.67977C18.1435 7.67977 13.4395 12.3838 13.4395 18.2398C13.4395 24.3838 21.5035 34.7518 23.9995 37.8238C26.4955 34.7518 34.5595 24.3838 34.5595 18.2398C34.5595 12.3838 29.8555 7.67977 23.9995 7.67977Z" fill="#F24E1E"/>
<path d="M24.0002 23.0399C21.3122 23.0399 19.2002 20.9279 19.2002 18.2399C19.2002 15.5519 21.3122 13.4399 24.0002 13.4399C26.6882 13.4399 28.8002 15.5519 28.8002 18.2399C28.8002 20.9279 26.6882 23.0399 24.0002 23.0399ZM24.0002 15.3599C22.3682 15.3599 21.1202 16.6079 21.1202 18.2399C21.1202 19.8719 22.3682 21.1199 24.0002 21.1199C25.6322 21.1199 26.8802 19.8719 26.8802 18.2399C26.8802 16.6079 25.6322 15.3599 24.0002 15.3599Z" fill="#F24E1E"/>
</svg>

<?xml version="1.0" encoding="UTF-8"?>
<svg id="Layer_1" data-name="Layer 1" xmlns="http://www.w3.org/2000/svg" width="48" height="48" viewBox="0 0 48 48">
  <defs>
    <style>
      .cls-1 {
        fill: #eece93;
        stroke-width: 0px;
      }
    </style>
  </defs>
  <path class="cls-1" d="M24,40.8l-.77-.86c-.48-.48-11.71-13.73-11.71-21.7,0-6.91,5.57-12.48,12.48-12.48s12.48,5.57,12.48,12.48c0,7.97-11.23,21.22-11.71,21.79l-.77.77ZM24,7.68c-5.86,0-10.56,4.7-10.56,10.56,0,6.14,8.06,16.51,10.56,19.58,2.5-3.07,10.56-13.44,10.56-19.58s-4.7-10.56-10.56-10.56Z"/>
  <path class="cls-1" d="M24,23.04c-2.69,0-4.8-2.11-4.8-4.8s2.11-4.8,4.8-4.8,4.8,2.11,4.8,4.8-2.11,4.8-4.8,4.8ZM24,15.36c-1.63,0-2.88,1.25-2.88,2.88s1.25,2.88,2.88,2.88,2.88-1.25,2.88-2.88-1.25-2.88-2.88-2.88Z"/>
</svg>
